icons/tokens/0x8888801aF4d980682e47f1A9036e589479e835C5/logo.svg

<svg width="32" height="32" viewBox="0 0 32 32" fill="none" xmlns="http://www.w3.org/2000/svg">
<path fill-rule="evenodd" clip-rule="evenodd" d="M32 16C32 7.17152 24.8285 0 16 0C7.17152 0 0 7.17152 0 16C0 24.8285 7.17152 32 16 32C24.8285 32 32 24.8285 32 16Z" fill="url(#paint0_linear)"/>
<path fill-rule="evenodd" clip-rule="evenodd" d="M5.83202 11.2797C5.88194 11.2829 5.93058 11.2845 5.97762 11.2845H26.0224C26.0695 11.2845 26.1181 11.2829 26.168 11.2797C26.2682 11.2733 26.3459 11.2282 26.4007 11.144C26.4279 11.1021 26.4531 11.0605 26.4765 11.0195L26.9891 10.1126C27.2195 9.73024 27.273 9.56 27.2915 9.36608C27.3104 9.17216 27.2944 8.95456 27.1799 8.72544C27.065 8.49632 26.8512 8.25568 26.3162 8.25568H5.68386C5.14882 8.25568 4.93506 8.49632 4.82018 8.72544C4.70562 8.95456 4.68962 9.17216 4.7085 9.36608C4.72706 9.56 4.7805 9.73024 5.0109 10.1126L5.52354 11.0195C5.5469 11.0605 5.57218 11.1021 5.59938 11.144C5.6541 11.2282 5.73186 11.2733 5.83202 11.2797ZM25.5955 12.5629C25.5799 12.6003 25.5639 12.6333 25.5482 12.6614L24.3213 14.831C24.2983 14.872 24.273 14.9136 24.2455 14.9555C24.1907 15.0397 24.113 15.0848 24.0128 15.0912C23.9629 15.0944 23.9143 15.096 23.8672 15.096H8.13282C8.08578 15.096 8.03714 15.0944 7.98722 15.0912C7.88706 15.0848 7.8093 15.0397 7.75458 14.9555C7.72706 14.9136 7.70178 14.872 7.67874 14.831L6.45186 12.6614C6.43618 12.6333 6.42018 12.6003 6.4045 12.5629C6.37314 12.4874 6.39778 12.4448 6.47874 12.4352C6.51938 12.4304 6.55586 12.4282 6.58818 12.4282H25.4119C25.4442 12.4282 25.4807 12.4304 25.5213 12.4352C25.6023 12.4448 25.6269 12.4874 25.5955 12.5629ZM23.393 16.473C23.4087 16.4448 23.4247 16.4118 23.4403 16.3744C23.4717 16.2992 23.4471 16.2566 23.3661 16.2467C23.3255 16.2419 23.289 16.2397 23.2567 16.2397H8.74338C8.71106 16.2397 8.67458 16.2419 8.63394 16.2467C8.55298 16.2566 8.52834 16.2992 8.5597 16.3744C8.57538 16.4118 8.59138 16.4448 8.60706 16.473L9.58562 18.2035C9.60866 18.2445 9.63394 18.2861 9.66146 18.328C9.71618 18.4122 9.79394 18.4576 9.8941 18.4637C9.94402 18.4669 9.99266 18.4685 10.0397 18.4685H21.9603C22.0074 18.4685 22.056 18.4669 22.1059 18.4637C22.2061 18.4576 22.2839 18.4122 22.3386 18.328C22.3661 18.2861 22.3914 18.2445 22.4144 18.2035L23.393 16.473ZM21.5335 19.7469C21.5178 19.7846 21.5018 19.8173 21.4861 19.8458L20.5098 21.5722C20.4864 21.6131 20.4611 21.6547 20.4339 21.6966C20.3789 21.7808 20.3015 21.8259 20.2013 21.8323C20.1514 21.8355 20.1027 21.8371 20.0557 21.8371H11.9443C11.8973 21.8371 11.8487 21.8355 11.7987 21.8323C11.6986 21.8259 11.6211 21.7808 11.5661 21.6966C11.5389 21.6547 11.5136 21.6131 11.4903 21.5722L10.5139 19.8458C10.4983 19.8173 10.4823 19.7846 10.4666 19.7469C10.4352 19.6717 10.4599 19.6291 10.5408 19.6195C10.5815 19.6144 10.6179 19.6122 10.6503 19.6122H21.3498C21.3821 19.6122 21.4186 19.6144 21.4592 19.6195C21.5402 19.6291 21.5648 19.6717 21.5335 19.7469ZM19.5811 23.2141C19.5971 23.1859 19.6131 23.1533 19.6288 23.1155C19.6602 23.0403 19.6355 22.9978 19.5546 22.9882C19.5139 22.983 19.4775 22.9808 19.4451 22.9808H12.5549C12.5226 22.9808 12.4861 22.983 12.4455 22.9882C12.3645 22.9978 12.3399 23.0403 12.3712 23.1155C12.3869 23.1533 12.4029 23.1859 12.4189 23.2141L13.3939 24.9386C13.417 24.9795 13.4423 25.0211 13.4698 25.063C13.5245 25.1472 13.6019 25.1926 13.7021 25.1987C13.7523 25.2019 13.8007 25.2035 13.8477 25.2035H18.1523C18.1994 25.2035 18.2477 25.2019 18.2979 25.1987C18.3981 25.1926 18.4755 25.1472 18.5303 25.063C18.5578 25.0211 18.5831 24.9795 18.6061 24.9386L19.5811 23.2141ZM17.7255 26.4819C17.7095 26.5197 17.6938 26.5523 17.6778 26.5808L17.1687 27.481C16.7879 28.1546 16.3939 28.3882 16.0019 28.3882C15.6099 28.3882 15.2202 28.1546 14.8314 27.481L14.3223 26.5808C14.3063 26.5523 14.2906 26.5197 14.2746 26.4819C14.2432 26.4067 14.2682 26.3642 14.3491 26.3546C14.3895 26.3494 14.4259 26.3472 14.4583 26.3472H17.5418C17.5741 26.3472 17.6106 26.3494 17.6509 26.3546C17.7319 26.3642 17.7568 26.4067 17.7255 26.4819Z" fill="url(#paint1_linear)"/>
<path fill-rule="evenodd" clip-rule="evenodd" d="M18.0957 16.0509C18.7722 16.1811 19.0586 16.4154 19.2551 16.6266C19.4519 16.8378 19.5591 17.0262 19.6832 17.3603C19.8074 17.6944 19.9485 18.1744 20.0557 18.5837C20.1629 18.9933 20.2365 19.3318 20.2378 19.584C20.2394 19.8362 20.1687 20.0013 20.0503 20.1453C19.9315 20.2893 19.7648 20.4122 19.5629 20.496C19.3613 20.5798 19.1239 20.625 18.3645 20.7155C17.6051 20.8058 16.3232 20.9411 15.0218 21.0486C13.7203 21.1558 12.3991 21.2349 11.4842 21.2237C10.5696 21.2122 10.0611 21.1107 9.6717 20.9696C9.28194 20.8282 9.0109 20.6477 8.80226 20.3936C8.5933 20.1395 8.44642 19.8118 8.27426 19.3574C8.10178 18.9027 7.90434 18.3213 7.77442 17.9005C7.6445 17.48 7.58242 17.2202 7.59938 17.0083C7.61634 16.7968 7.71234 16.633 7.8493 16.513C7.98626 16.393 8.16418 16.3168 8.68226 16.167C7.8669 16.0803 7.3725 15.8765 7.02466 15.6771C6.67682 15.4781 6.47522 15.2832 6.33986 15.1395C6.20418 14.9955 6.13474 14.903 5.91266 14.567C5.69058 14.231 5.31586 13.6515 5.0445 13.2C4.77314 12.7485 4.6045 12.4243 4.51202 12.1088C4.41954 11.7933 4.40258 11.4861 4.50242 11.2822C4.60226 11.0787 4.81858 10.9786 5.0621 10.9085C5.30594 10.8387 5.57666 10.7987 6.04866 10.7955C6.52034 10.7923 7.19298 10.8253 8.34946 10.9437C9.50562 11.0618 11.1453 11.265 12.4643 11.4525C13.7834 11.64 14.7818 11.8115 15.4199 11.9338C16.0576 12.0557 16.3351 12.128 16.5536 12.216C16.7719 12.3043 16.9309 12.4083 17.1159 12.5658C17.3008 12.7235 17.5117 12.9344 17.6999 13.183C17.8877 13.4317 18.0525 13.7181 18.2202 14.0403C18.3879 14.3626 18.5584 14.7213 18.6525 14.9626C18.7463 15.2038 18.7635 15.3283 18.7507 15.4294C18.7376 15.5306 18.6944 15.6086 18.5728 15.728C18.4515 15.847 18.2519 16.0077 18.0957 16.0509ZM12.6151 18.1491C12.561 18.0064 12.5357 17.8909 12.5408 17.7808C12.5463 17.6704 12.5824 17.5658 12.673 17.4736C12.7632 17.3814 12.9079 17.3018 13.0685 17.2586C13.2295 17.215 13.4064 17.208 13.7335 17.208C13.9685 17.208 14.2811 17.2116 14.5693 17.215C14.682 17.2163 14.7911 17.2176 14.8903 17.2186L14.9965 17.2197H14.9966C15.2906 17.2226 15.4941 17.2247 15.6871 17.2445C15.9024 17.2666 16.1047 17.3107 16.2477 17.3923C16.3904 17.4736 16.4736 17.592 16.5533 17.7334C16.6327 17.8749 16.7085 18.0397 16.7763 18.2051C16.8442 18.3702 16.904 18.5363 16.9267 18.6582C16.9491 18.7798 16.9344 18.8576 16.8695 18.9158C16.8048 18.9741 16.6903 19.0131 16.5107 19.041C16.3312 19.0685 16.0871 19.0851 15.7226 19.1046C15.3581 19.1242 14.8733 19.1462 14.4864 19.16C14.0999 19.1741 13.8112 19.1795 13.6141 19.1638C13.417 19.1482 13.3117 19.111 13.2183 19.0576C13.1248 19.0038 13.0432 18.9334 12.9815 18.8598C12.9197 18.7859 12.8775 18.7088 12.8151 18.5853C12.7523 18.4618 12.6691 18.2922 12.6151 18.1491ZM10.5018 13.321C10.4355 13.3846 10.4093 13.4656 10.4211 13.5606C10.4327 13.6557 10.4816 13.7651 10.5293 13.8528C10.577 13.9408 10.6234 14.0074 10.6784 14.0854C10.7331 14.1635 10.7968 14.2531 10.8922 14.3325C10.9875 14.4122 11.1149 14.4816 11.2522 14.5248C11.3895 14.5683 11.537 14.5856 11.7552 14.6013C11.9735 14.6173 12.2627 14.6317 12.7194 14.6506C13.0417 14.6639 13.4477 14.6793 13.8046 14.6928C13.9533 14.6985 14.0934 14.7038 14.2154 14.7085C14.26 14.7102 14.3021 14.7118 14.3421 14.7133C14.6736 14.7259 14.8497 14.7326 14.9671 14.7286C15.0986 14.7242 15.1565 14.7069 15.1898 14.6723C15.2231 14.6374 15.2317 14.5856 15.2157 14.5146C15.2 14.4438 15.1594 14.3542 15.0995 14.2451C15.0394 14.136 14.9597 14.0077 14.8851 13.9034C14.8106 13.7994 14.7411 13.72 14.641 13.6477C14.5411 13.575 14.4109 13.5101 14.2093 13.4579C14.0077 13.4058 13.7351 13.3667 13.2503 13.3216C12.7658 13.2765 12.0688 13.225 11.6221 13.1978C11.1754 13.1709 10.9786 13.168 10.8266 13.1894C10.6749 13.2112 10.5683 13.2576 10.5018 13.321Z" fill="white"/>
<path fill-rule="evenodd" clip-rule="evenodd" d="M26.5046 16.1523C26.817 16.208 26.9661 16.312 27.0742 16.4301C27.1824 16.5478 27.2493 16.6797 27.328 16.8995C27.4067 17.119 27.497 17.4269 27.551 17.7066C27.6054 17.9866 27.624 18.2387 27.6298 18.4432C27.6355 18.648 27.6285 18.8051 27.5939 18.921C27.5594 19.0365 27.497 19.1104 27.4067 19.1856C27.3165 19.2608 27.1984 19.3373 27.017 19.409C26.8352 19.4806 26.5901 19.5475 26.2467 19.6125C25.9034 19.6771 25.4614 19.7395 24.9827 19.793C24.504 19.8461 23.9882 19.8899 23.6042 19.9027C23.2205 19.9155 22.9683 19.897 22.751 19.8669C22.5334 19.8368 22.3507 19.7952 22.2003 19.7213C22.0502 19.647 21.9322 19.5408 21.8131 19.3754C21.6938 19.2099 21.5738 18.9856 21.4637 18.6282C21.3539 18.271 21.2544 17.7808 21.2035 17.4602C21.1523 17.1395 21.1498 16.9891 21.1872 16.8387C21.2246 16.6883 21.3024 16.5386 21.7014 16.2323C21.4154 16.1802 21.1421 16.1021 20.9533 15.9965C20.7648 15.8912 20.6608 15.7581 20.5696 15.617C20.4781 15.4755 20.4 15.3261 20.2778 15.0544C20.1552 14.7827 19.9891 14.3888 19.8662 14.0854C19.7434 13.7818 19.6637 13.5686 19.6278 13.3789C19.5917 13.1891 19.5987 13.023 19.6477 12.9002C19.6963 12.7773 19.7866 12.6976 19.9149 12.6451C20.0432 12.593 20.2096 12.5677 20.4842 12.5712C20.7587 12.5747 21.1418 12.6074 21.7472 12.6813C22.3526 12.7555 23.1802 12.871 23.816 12.9651C24.4522 13.0589 24.8966 13.1312 25.2093 13.2C25.5219 13.2685 25.7024 13.3338 25.8362 13.4221C25.9699 13.5107 26.0566 13.6227 26.1632 13.809C26.2698 13.9949 26.3965 14.255 26.5101 14.5261C26.624 14.7971 26.7251 15.079 26.7776 15.2778C26.8301 15.4768 26.8336 15.5923 26.8061 15.7126C26.7786 15.833 26.7197 15.9581 26.5046 16.1523ZM22.4726 14.4922C22.4534 14.4016 22.4582 14.3162 22.4928 14.2547C22.5274 14.1936 22.5923 14.1565 22.6976 14.1357C22.8029 14.1149 22.9485 14.1101 23.16 14.1219C23.3718 14.1334 23.6493 14.161 23.8826 14.1894C24.1158 14.2176 24.3046 14.2464 24.4211 14.2829C24.5376 14.319 24.5818 14.3632 24.6349 14.4534C24.688 14.544 24.7504 14.6806 24.7942 14.7827C24.8381 14.8848 24.8637 14.9517 24.8707 15.0061C24.8774 15.0605 24.8659 15.1021 24.8291 15.1242C24.792 15.1462 24.7296 15.1485 24.6016 15.1434C24.5256 15.1405 24.4266 15.1351 24.3169 15.129L24.3169 15.129C24.2417 15.1249 24.1615 15.1205 24.0803 15.1165C23.8806 15.1062 23.6746 15.0986 23.472 15.0938L23.3973 15.0922H23.3973C23.221 15.0886 23.0537 15.0852 22.9421 15.0675C22.8144 15.047 22.7587 15.008 22.7104 14.9558C22.6618 14.9037 22.6202 14.839 22.5776 14.7587C22.5354 14.6787 22.4922 14.583 22.4726 14.4922ZM23.6957 17.1155C23.6291 17.1648 23.592 17.2221 23.5763 17.3024C23.5606 17.383 23.5661 17.4867 23.5958 17.6346C23.6253 17.7824 23.6787 17.9741 23.7251 18.0979C23.7712 18.2218 23.8102 18.2771 23.8646 18.3114C23.9194 18.3456 23.9898 18.3587 24.1475 18.3693C24.3056 18.3798 24.5514 18.3878 24.8131 18.3843C25.0746 18.3805 25.3523 18.3648 25.5197 18.3424C25.687 18.3197 25.7443 18.2902 25.7731 18.2486C25.8019 18.207 25.8019 18.1533 25.7875 18.0566C25.7734 17.9597 25.745 17.8198 25.7171 17.7027C25.6896 17.5859 25.6627 17.4918 25.6195 17.391C25.576 17.2902 25.5155 17.1824 25.4205 17.1203C25.3251 17.0582 25.1949 17.0416 25.0358 17.0278C24.8768 17.0138 24.6886 17.0029 24.5037 16.9962C24.3187 16.9894 24.1366 16.9875 23.9978 17.0067C23.8586 17.0259 23.7622 17.0666 23.6957 17.1155Z" fill="white"/>
<defs>
<linearGradient id="paint0_linear" x1="0" y1="-1.5" x2="0" y2="23" gradientUnits="userSpaceOnUse">
<stop stop-color="#050074"/>
<stop offset="1"/>
</linearGradient>
<linearGradient id="paint1_linear" x1="8.53829" y1="9.50243" x2="8.53829" y2="22.7986" gradientUnits="userSpaceOnUse">
<stop stop-color="#3535F5"/>
<stop offset="0.460938" stop-color="#F71899"/>
<stop offset="0.99959" stop-color="#FFE401"/>
</linearGradient>
</defs>
</svg>

<svg fill="none" viewBox="0 0 32 32"><path fill="url(#paint0_linear)" fill-rule="evenodd" d="M32 16c0-8.828-7.172-16-16-16S0 7.172 0 16s7.172 16 16 16 16-7.172 16-16z" clip-rule="evenodd"/><path fill="url(#paint1_linear)" fill-rule="evenodd" d="M5.832 11.28c.05.003.099.005.146.005h20.044c.048 0 .096-.002.146-.005a.285.285 0 00.233-.136 2.55 2.55 0 00.076-.124l.512-.907c.23-.383.284-.553.302-.747a1.143 1.143 0 00-.111-.64c-.115-.23-.329-.47-.864-.47H5.684c-.535 0-.749.24-.864.47-.114.229-.13.446-.112.64.02.194.072.364.303.747l.513.907c.023.04.048.082.075.124.055.084.133.13.233.136zm19.764 1.283a.965.965 0 01-.048.098l-1.227 2.17a2.098 2.098 0 01-.076.125.285.285 0 01-.232.135c-.05.003-.099.005-.146.005H8.133a2.28 2.28 0 01-.146-.005.285.285 0 01-.232-.135 2.11 2.11 0 01-.076-.125l-1.227-2.17a.986.986 0 01-.048-.098c-.03-.076-.006-.118.075-.128a.939.939 0 01.11-.007h18.823c.032 0 .069.002.11.007.08.01.105.052.074.128zm-2.203 3.91a.977.977 0 00.047-.099c.032-.075.007-.117-.074-.127a.938.938 0 00-.11-.007H8.744a.939.939 0 00-.11.007c-.08.01-.105.052-.073.127.015.038.031.07.047.099l.979 1.73c.023.041.048.083.075.125.055.084.133.13.233.136.05.003.099.005.146.005h11.92c.047 0 .096-.002.146-.005a.285.285 0 00.233-.136 2.43 2.43 0 00.075-.125l.979-1.73zm-1.86 3.274a.839.839 0 01-.047.099l-.976 1.726a2.6 2.6 0 01-.076.125.286.286 0 01-.233.135 2.28 2.28 0 01-.145.005h-8.112c-.047 0-.095-.002-.145-.005a.286.286 0 01-.233-.135 2.517 2.517 0 01-.076-.125l-.976-1.726a1.03 1.03 0 01-.047-.1c-.032-.074-.007-.117.074-.127a.883.883 0 01.11-.007H21.35c.032 0 .069.002.11.008.08.01.105.052.073.127zm-1.952 3.467a.896.896 0 00.048-.098c.031-.076.006-.118-.074-.128a.865.865 0 00-.11-.007h-6.89a.864.864 0 00-.11.007c-.08.01-.105.052-.074.128a1 1 0 00.048.098l.975 1.725c.023.04.048.082.076.124.054.084.132.13.232.136.05.003.099.004.146.004h4.304c.047 0 .096-.001.146-.004a.284.284 0 00.232-.136 2.13 2.13 0 00.076-.124l.975-1.725zm-1.855 3.268a.992.992 0 01-.048.099l-.51.9c-.38.674-.774.907-1.166.907-.392 0-.782-.233-1.17-.907l-.51-.9a.992.992 0 01-.047-.1c-.032-.074-.007-.117.074-.126a.857.857 0 01.11-.008h3.083c.032 0 .069.002.109.008.08.01.106.052.075.127z" clip-rule="evenodd"/><path fill="#fff" fill-rule="evenodd" d="M18.096 16.05c.676.131.963.365 1.16.577.196.21.303.4.427.733.124.334.265.814.373 1.224.107.41.18.748.182 1a.811.811 0 01-.188.561 1.25 1.25 0 01-.487.351c-.202.084-.44.129-1.198.22-.76.09-2.042.225-3.343.333-1.302.107-2.623.186-3.538.175-.914-.012-1.423-.113-1.812-.254-.39-.142-.661-.322-.87-.576-.209-.254-.356-.582-.528-1.037a27.023 27.023 0 01-.5-1.456c-.13-.421-.192-.68-.175-.893a.718.718 0 01.25-.495c.137-.12.315-.196.833-.346-.815-.087-1.31-.29-1.657-.49a2.811 2.811 0 01-.685-.537c-.136-.145-.205-.237-.427-.573a42.88 42.88 0 01-.869-1.367c-.27-.451-.44-.776-.532-1.091-.092-.316-.11-.623-.01-.827.1-.203.317-.303.56-.373.244-.07.515-.11.987-.114.471-.003 1.144.03 2.3.149a117.1 117.1 0 014.115.508c1.32.188 2.318.36 2.956.482.638.122.915.194 1.134.282.218.088.377.192.562.35.185.157.396.368.584.617.188.249.352.535.52.857.168.323.338.681.433.923.093.24.11.365.098.466-.013.102-.057.18-.178.299-.122.119-.321.28-.477.323zm-5.48 2.1a.915.915 0 01-.075-.37.452.452 0 01.132-.306.892.892 0 01.396-.215c.16-.044.337-.051.664-.051.236 0 .548.004.836.007l.321.004h.106c.295.004.498.006.691.025.215.023.418.067.56.148.143.082.227.2.306.341.08.142.155.307.223.472.068.165.128.331.15.453.023.122.008.2-.056.258-.065.058-.18.097-.36.125a9.175 9.175 0 01-.787.064c-.365.02-.85.041-1.237.055-.386.014-.675.02-.872.004a.872.872 0 01-.396-.106.898.898 0 01-.236-.198 1.354 1.354 0 01-.167-.275 4.748 4.748 0 01-.2-.436zm-2.114-4.829a.27.27 0 00-.08.24c.01.095.06.204.107.292.048.088.094.154.15.232.054.079.118.168.213.247.096.08.223.15.36.193.137.043.285.06.503.076a36 36 0 00.964.05l1.086.042a208.259 208.259 0 00.537.02c.332.013.508.02.625.016.132-.005.19-.022.223-.057s.042-.086.026-.157a1.114 1.114 0 00-.116-.27 3.66 3.66 0 00-.215-.342 1.038 1.038 0 00-.244-.255 1.23 1.23 0 00-.432-.19c-.201-.052-.474-.091-.959-.136a59.305 59.305 0 00-1.628-.124c-.447-.027-.643-.03-.795-.009a.583.583 0 00-.325.132zm16.003 2.831c.312.056.461.16.57.278.107.118.174.25.253.47.079.219.169.527.223.807.054.28.073.532.079.736.006.205-.002.362-.036.478a.522.522 0 01-.187.265c-.09.075-.209.151-.39.223a4.355 4.355 0 01-.77.204c-.344.064-.786.127-1.264.18-.479.053-.995.097-1.379.11a4.785 4.785 0 01-.853-.036 1.82 1.82 0 01-.55-.146 1.028 1.028 0 01-.388-.346c-.12-.165-.24-.39-.35-.747a9.637 9.637 0 01-.26-1.168c-.05-.32-.053-.47-.016-.621.038-.15.115-.3.514-.607-.286-.052-.559-.13-.748-.236a1.048 1.048 0 01-.383-.379 4.005 4.005 0 01-.292-.563 30.48 30.48 0 01-.412-.969c-.123-.303-.202-.516-.238-.706a.88.88 0 01.02-.479.45.45 0 01.267-.255c.128-.052.295-.077.57-.074.274.004.657.036 1.262.11.606.075 1.433.19 2.069.284.636.094 1.08.166 1.393.235.313.069.493.134.627.222.134.089.22.2.327.387.107.186.233.446.347.717.114.271.215.553.268.752.052.199.056.314.028.435-.027.12-.086.245-.301.44zm-4.032-1.66a.346.346 0 01.02-.237c.034-.061.1-.099.205-.12.105-.02.25-.025.462-.013.212.011.49.039.723.067.233.029.422.057.538.094a.32.32 0 01.214.17c.053.091.115.228.16.33a.966.966 0 01.076.223c.006.054-.005.096-.042.118-.037.022-.1.024-.227.02a17.993 17.993 0 01-.285-.015l-.237-.012c-.2-.01-.405-.018-.608-.023l-.075-.002a3.948 3.948 0 01-.455-.024c-.128-.021-.183-.06-.232-.112a.908.908 0 01-.132-.197 1.1 1.1 0 01-.105-.267zm1.223 2.623a.286.286 0 00-.12.187.878.878 0 00.02.333c.03.147.083.34.13.463.045.124.084.18.139.213.054.035.125.048.283.058.158.01.403.019.665.015.262-.003.54-.02.707-.042.167-.022.224-.052.253-.093.029-.042.029-.096.015-.192a4.516 4.516 0 00-.07-.354 1.802 1.802 0 00-.099-.312.596.596 0 00-.198-.27c-.096-.063-.226-.08-.385-.093a10.723 10.723 0 00-.532-.032 3.157 3.157 0 00-.506.01.652.652 0 00-.302.11z" clip-rule="evenodd"/><defs><linearGradient id="paint0_linear" x1="0" x2="0" y1="-1.5" y2="23" gradientUnits="userSpaceOnUse"><stop stop-color="#050074"/><stop offset="1"/></linearGradient><linearGradient id="paint1_linear" x1="8.538" x2="8.538" y1="9.502" y2="22.799" gradientUnits="userSpaceOnUse"><stop stop-color="#3535F5"/><stop offset=".461" stop-color="#F71899"/><stop offset="1" stop-color="#FFE401"/></linearGradient></defs></svg>
